static/assets/template/assets/img/icons/essential/detailed/Treadmill.svg

<svg height="127" viewBox="0 0 150 127" width="150" xmlns="http://www.w3.org/2000/svg"><g fill="none" fill-rule="evenodd" transform="translate(2 2)"><g stroke-linecap="round" stroke-linejoin="round" stroke-width="3" transform="translate(0 123)"><path d="m1.6.4h-1.3"/><path d="m38.7.4h-31.9"/><path d="m45.6.4h-1.2"/><path d="m139.5.4h-86.9"/><path d="m145.7.4h-2"/></g><path d="m27.2 123.4c-1 0-1.8-.8-1.8-1.8v-7.8c0-1 .8-1.8 1.8-1.8s1.8.8 1.8 1.8v7.8c0 1-.8 1.8-1.8 1.8z" stroke-linecap="round" stroke-linejoin="round" stroke-width="3"/><path d="m126.7 123.4c-1 0-1.8-.8-1.8-1.8v-7.8c0-1 .8-1.8 1.8-1.8s1.8.8 1.8 1.8v7.8c0 1-.8 1.8-1.8 1.8z" stroke-linecap="round" stroke-linejoin="round" stroke-width="3"/><path d="m124.7 116.3c-18.6 0-37.2 0-55.9 0-14.5 0-29 0-43.4 0-9.8 0-17.3-7.9-16.7-17.7.2-3.2 1.1-6.3 3.2-8.5 2.2-2.3 2.8-5 3.3-7.9 2.9-17.5 5.8-35.1 8.8-52.6h16.8c-3 17.8-5.9 35.4-8.9 53.5h2.5 89.5c8 0 14.5 4.4 16.8 11.3 3.4 10.9-4.5 21.9-16 21.9z" fill-rule="nonzero"/><path d="m132.5 114.5c-.2.1-.4.2-.6.3s-.3.2-.5.2c-.3.1-.5.2-.8.3s-.5.2-.8.3c-.8.3-1.6.4-2.4.6h-.1c-.3 0-.5.1-.8.1s-.6.1-.9.1-.6 0-.9 0c-18.6 0-37.2 0-55.9 0-14.5 0-29 0-43.4 0-9.8 0-17.3-7.9-16.7-17.7 0-.4 0-.8.1-1.2.3-2.6.8-4.1 1.6-5.2 0-.1.1-.1.1-.2 0 0 0 0 0-.1.6-.9 1.3-1.6 2-2.6.9-1.2 1.8-2.9 2.4-5.9.1-.4.1-.8.2-1.2.1-.5.2-1 .3-1.5 2.5-15.1 5.1-26.7 7.6-41.3.3-1.6.6-3.3.9-5h16.6v.1c-.3 2.1-.7 4.1-1 6.2-1.3 8-2.5 16.1-3.8 24.2-.1.4-.1.8-.2 1.2-.9 5.6-1.8 11.2-2.7 16.7v.3c-.3 3.2 2.1 6 5.3 6h85.7c6.2 0 12.3 2.5 15.2 7 .8 1.3 1.4 2.7 1.6 4.4.5 3.9-2.1 10.6-8.1 13.9z" fill="#bad8ff" fill-rule="nonzero"/><path d="m139 96.1c-.4 5.7-5.5 14.1-15.5 14.1-18.2 0-36.3 0-54.5 0-14.1 0-28.2 0-42.4 0-9.6 0-16.8-7.9-16.3-17.7v-.1c0-.1.1-.1.1-.2 0 0 0 0 0-.1.6-.9 1.3-1.6 2-2.6.9-1.2 1.8-2.9 2.4-5.9.1-.4.1-.8.2-1.2.1-.5.2-1 .3-1.5.5-1.2.9-2.7 1.2-4.7 2.2-13.6 4.4-24.3 6.6-36.5.3-1.7.6-3.4.9-5.1h16.4v.1c-.3 2.1-.7 4.1-1 6.2-1.3 8-2.5 16.1-3.8 24.2-.1.4-.1.8-.2 1.2-.9 5.6-1.8 11.2-2.7 16.7v.3c-.3 3.2 2.1 6 5.3 6h85.7c6.4-.2 12.4 2.3 15.3 6.8z" fill-rule="nonzero"/><path d="m40.6 34.4v.1c-.3 2.1-.7 4.1-1 6.2-.2 0-.4 0-.7 0-1.5 0-3.4 0-6 0-3.2 0-5.8-.3-8.1-.8-.5-.1-1-.2-1.5-.4-.1 0-.1 0-.2 0 .3-1.6.6-3.3.9-5h16.6z" fill="#bad8ff" fill-rule="nonzero"/><g stroke-linecap="round" stroke-linejoin="round" stroke-width="3"><path d="m38.4 43.6-.7 4.1c-2 11.7-3.9 23.5-5.9 35.4h2.5 14.8"/><path d="m115.6 116.4c-15.6 0-31.1 0-46.7 0-14.5 0-29 0-43.4 0-9.8 0-17.3-7.9-16.7-17.7.2-3.2 1.1-6.3 3.2-8.5 2.2-2.3 2.8-5 3.3-7.9 2.9-17.5 5.8-35.1 8.8-52.6h16.8"/><path d="m86.1 83.1h37.7c8 0 14.5 4.4 16.8 11.3 3.5 10.8-4.3 21.8-15.7 21.9"/><path d="m56.5 83.1h5.1"/><path d="m47.2 25.4h3.8c2.3 0 4.2 1.9 4.2 4.2s-1.9 4.2-4.2 4.2c-4.2 0-6.5 0-8.5 0-2.8 0-4.9 0-10.9 0-3.2 0-5.8-.3-8.1-.8-13.2-3.1-22.1-13.9-23-28.3-.2-2.3 1.6-4.3 3.9-4.5s4.3 1.6 4.5 3.9c.7 10.7 6.9 18.4 16.5 20.7.5.1 1.1.2 1.7.3" fill-rule="nonzero"/><path d="m39.2 25.4h.3" fill-rule="nonzero"/><path d="m22.8 107.1c-2.8-1.3-4.8-4.1-4.8-7.4"/><path d="m24.1 91.7c.7-.2 1.3-.3 2-.3 4.5 0 8.2 3.7 8.2 8.2 0 3.4-2.1 6.4-5.1 7.6"/><path d="m19.8 94.5c.1-.2.3-.3.4-.4"/><path d="m125.6 107.4c-.8.3-1.6.4-2.5.4-4.5 0-8.2-3.7-8.2-8.2 0-1 .2-1.9.5-2.7"/><path d="m119.7 92.2c1-.5 2.2-.7 3.4-.7 4.5 0 8.2 3.7 8.2 8.2 0 .7-.1 1.5-.3 2.1"/></g></g></svg>

<?xml version="1.0" encoding="UTF-8"?>
<svg width="150px" height="127px" viewBox="0 0 150 127" version="1.1" xmlns="http://www.w3.org/2000/svg" xmlns:xlink="http://www.w3.org/1999/xlink">
    <!-- Generator: Sketch 51.2 (57519) - http://www.bohemiancoding.com/sketch -->
    <title>Treadmill</title>
    <desc>Created with Sketch.</desc>
    <defs></defs>
    <g id="Page-1" stroke="none" stroke-width="1" fill="none" fill-rule="evenodd">
        <g id="Treadmill" transform="translate(2.000000, 2.000000)">
            <g id="Group" transform="translate(0.000000, 123.000000)" class="stroke-primary-300" stroke-linecap="round" stroke-linejoin="round" stroke-width="3">
                <path d="M1.6,0.4 L0.3,0.4" id="Shape"></path>
                <path d="M38.7,0.4 L6.8,0.4" id="Shape"></path>
                <path d="M45.6,0.4 L44.4,0.4" id="Shape"></path>
                <path d="M139.5,0.4 L52.6,0.4" id="Shape"></path>
                <path d="M145.7,0.4 L143.7,0.4" id="Shape"></path>
            </g>
            <path d="M27.2,123.4 C26.2,123.4 25.4,122.6 25.4,121.6 L25.4,113.8 C25.4,112.8 26.2,112 27.2,112 C28.2,112 29,112.8 29,113.8 L29,121.6 C29,122.6 28.2,123.4 27.2,123.4 Z" id="Shape" class="stroke-primary" stroke-width="3" stroke-linecap="round" stroke-linejoin="round"></path>
            <path d="M126.7,123.4 C125.7,123.4 124.9,122.6 124.9,121.6 L124.9,113.8 C124.9,112.8 125.7,112 126.7,112 C127.7,112 128.5,112.8 128.5,113.8 L128.5,121.6 C128.5,122.6 127.7,123.4 126.7,123.4 Z" id="Shape" class="stroke-primary" stroke-width="3" stroke-linecap="round" stroke-linejoin="round"></path>
            <path d="M124.7,116.3 C106.1,116.3 87.5,116.3 68.8,116.3 C54.3,116.3 39.8,116.3 25.4,116.3 C15.6,116.3 8.1,108.4 8.7,98.6 C8.9,95.4 9.8,92.3 11.9,90.1 C14.1,87.8 14.7,85.1 15.2,82.2 C18.1,64.7 21,47.1 24,29.6 L40.8,29.6 C37.8,47.4 34.9,65 31.9,83.1 L34.4,83.1 C60.6,83.1 97.7,83.1 123.9,83.1 C131.9,83.1 138.4,87.5 140.7,94.4 C144.1,105.3 136.2,116.3 124.7,116.3 Z" id="Shape" class="fill-neutral" fill-rule="nonzero"></path>
            <path d="M132.5,114.5 C132.3,114.6 132.1,114.7 131.9,114.8 C131.7,114.9 131.6,115 131.4,115 C131.1,115.1 130.9,115.2 130.6,115.3 C130.3,115.4 130.1,115.5 129.8,115.6 C129,115.9 128.2,116 127.4,116.2 C127.4,116.2 127.3,116.2 127.3,116.2 C127,116.2 126.8,116.3 126.5,116.3 C126.2,116.3 125.9,116.4 125.6,116.4 C125.3,116.4 125,116.4 124.7,116.4 C106.1,116.4 87.5,116.4 68.8,116.4 C54.3,116.4 39.8,116.4 25.4,116.4 C15.6,116.4 8.1,108.5 8.7,98.7 C8.7,98.3 8.7,97.9 8.8,97.5 C9.1,94.9 9.6,93.4 10.4,92.3 C10.4,92.2 10.5,92.2 10.5,92.1 C10.5,92.1 10.5,92.1 10.5,92 C11.1,91.1 11.8,90.4 12.5,89.4 C12.5,89.4 12.5,89.4 12.5,89.4 C13.4,88.2 14.3,86.5 14.9,83.5 C15,83.1 15,82.7 15.1,82.3 C15.2,81.8 15.3,81.3 15.4,80.8 C17.9,65.7 20.5,54.1 23,39.5 C23.3,37.9 23.6,36.2 23.9,34.5 L40.5,34.5 C40.5,34.5 40.5,34.6 40.5,34.6 C40.2,36.7 39.8,38.7 39.5,40.8 C38.2,48.8 37,56.9 35.7,65 C35.6,65.4 35.6,65.8 35.5,66.2 C34.6,71.8 33.7,77.4 32.8,82.9 C32.8,83 32.8,83.1 32.8,83.2 C32.5,86.4 34.9,89.2 38.1,89.2 C66.8,89.2 99.6,89.2 123.8,89.2 C130,89.2 136.1,91.7 139,96.2 C139.8,97.5 140.4,98.9 140.6,100.6 C141.1,104.5 138.5,111.2 132.5,114.5 Z" id="Shape" fill="#BAD8FF" fill-rule="nonzero"></path>
            <path d="M139,96.1 C138.6,101.8 133.5,110.2 123.5,110.2 C105.3,110.2 87.2,110.2 69,110.2 C54.9,110.2 40.8,110.2 26.6,110.2 C17,110.2 9.8,102.3 10.3,92.5 C10.3,92.5 10.3,92.4 10.3,92.4 C10.3,92.3 10.4,92.3 10.4,92.2 C10.4,92.2 10.4,92.2 10.4,92.1 C11,91.2 11.7,90.5 12.4,89.5 C12.4,89.5 12.4,89.5 12.4,89.5 C13.3,88.3 14.2,86.6 14.8,83.6 C14.9,83.2 14.9,82.8 15,82.4 C15.1,81.9 15.2,81.4 15.3,80.9 C15.8,79.7 16.2,78.2 16.5,76.2 C18.7,62.6 20.9,51.9 23.1,39.7 C23.4,38 23.7,36.3 24,34.6 L40.4,34.6 C40.4,34.6 40.4,34.7 40.4,34.7 C40.1,36.8 39.7,38.8 39.4,40.9 C38.1,48.9 36.9,57 35.6,65.1 C35.5,65.5 35.5,65.9 35.4,66.3 C34.5,71.9 33.6,77.5 32.7,83 C32.7,83.1 32.7,83.2 32.7,83.3 C32.4,86.5 34.8,89.3 38,89.3 C66.7,89.3 99.5,89.3 123.7,89.3 C130.1,89.1 136.1,91.6 139,96.1 Z" id="Shape" class="fill-primary-100" fill-rule="nonzero"></path>
            <path d="M40.6,34.4 C40.6,34.4 40.6,34.5 40.6,34.5 C40.3,36.6 39.9,38.6 39.6,40.7 C39.4,40.7 39.2,40.7 38.9,40.7 C37.4,40.7 35.5,40.7 32.9,40.7 C29.7,40.7 27.1,40.4 24.8,39.9 C24.3,39.8 23.8,39.7 23.3,39.5 C23.2,39.5 23.2,39.5 23.1,39.5 C23.4,37.9 23.7,36.2 24,34.5 L40.6,34.5 L40.6,34.4 Z" id="Shape" fill="#BAD8FF" fill-rule="nonzero"></path>
            <path d="M38.4,43.6 L37.7,47.7 C35.7,59.4 33.8,71.2 31.8,83.1 L34.3,83.1 C38.9,83.1 43.9,83.1 49.1,83.1" id="Shape" class="stroke-primary" stroke-width="3" stroke-linecap="round" stroke-linejoin="round"></path>
            <path d="M115.6,116.4 C100,116.4 84.5,116.4 68.9,116.4 C54.4,116.4 39.9,116.4 25.5,116.4 C15.7,116.4 8.2,108.5 8.8,98.7 C9,95.5 9.9,92.4 12,90.2 C14.2,87.9 14.8,85.2 15.3,82.3 C18.2,64.8 21.1,47.2 24.1,29.7 L40.9,29.7" id="Shape" class="stroke-primary" stroke-width="3" stroke-linecap="round" stroke-linejoin="round"></path>
            <path d="M86.1,83.1 C99.5,83.1 112.7,83.1 123.8,83.1 C131.8,83.1 138.3,87.5 140.6,94.4 C144.1,105.2 136.3,116.2 124.9,116.3" id="Shape" class="stroke-primary" stroke-width="3" stroke-linecap="round" stroke-linejoin="round"></path>
            <path d="M56.5,83.1 C58.2,83.1 59.9,83.1 61.6,83.1" id="Shape" class="stroke-primary" stroke-width="3" stroke-linecap="round" stroke-linejoin="round"></path>
            <path d="M47.2,25.4 C48.3,25.4 49.5,25.4 51,25.4 C53.3,25.4 55.2,27.3 55.2,29.6 C55.2,31.9 53.3,33.8 51,33.8 C51,33.8 51,33.8 51,33.8 C46.8,33.8 44.5,33.8 42.5,33.8 C39.7,33.8 37.6,33.8 31.6,33.8 C28.4,33.8 25.8,33.5 23.5,33 C10.3,29.9 1.4,19.1 0.5,4.7 C0.3,2.4 2.1,0.4 4.4,0.2 C6.7,1.14547261e-13 8.7,1.8 8.9,4.1 C9.6,14.8 15.8,22.5 25.4,24.8 C25.9,24.9 26.5,25 27.1,25.1" id="Shape" stroke-width="3" class="stroke-primary fill-primary-400" fill-rule="nonzero" stroke-linecap="round" stroke-linejoin="round"></path>
            <path d="M39.2,25.4 C39.3,25.4 39.4,25.4 39.5,25.4" id="Shape" stroke-width="3" class="stroke-primary fill-primary-400" fill-rule="nonzero" stroke-linecap="round" stroke-linejoin="round"></path>
            <path d="M22.8,107.1 C20,105.8 18,103 18,99.7" id="Shape" class="stroke-primary-300" stroke-width="3" stroke-linecap="round" stroke-linejoin="round"></path>
            <path d="M24.1,91.7 C24.8,91.5 25.4,91.4 26.1,91.4 C30.6,91.4 34.3,95.1 34.3,99.6 C34.3,103 32.2,106 29.2,107.2" id="Shape" class="stroke-primary-300" stroke-width="3" stroke-linecap="round" stroke-linejoin="round"></path>
            <path d="M19.8,94.5 C19.9,94.3 20.1,94.2 20.2,94.1" id="Shape" class="stroke-primary-300" stroke-width="3" stroke-linecap="round" stroke-linejoin="round"></path>
            <path d="M125.6,107.4 C124.8,107.7 124,107.8 123.1,107.8 C118.6,107.8 114.9,104.1 114.9,99.6 C114.9,98.6 115.1,97.7 115.4,96.9" id="Shape" class="stroke-primary-300" stroke-width="3" stroke-linecap="round" stroke-linejoin="round"></path>
            <path d="M119.7,92.2 C120.7,91.7 121.9,91.5 123.1,91.5 C127.6,91.5 131.3,95.2 131.3,99.7 C131.3,100.4 131.2,101.2 131,101.8" id="Shape" class="stroke-primary-300" stroke-width="3" stroke-linecap="round" stroke-linejoin="round"></path>
        </g>
    </g>
</svg>
